packages/icons/src/envelope-open-fill.svg

<svg width="24" height="24" viewBox="0 0 24 24" fill="none" xmlns="http://www.w3.org/2000/svg">
<path d="M12 1L21.05 6.4C21.35 6.58333 21.5833 6.83333 21.75 7.15C21.9167 7.46667 22 7.8 22 8.15V19C22 19.55 21.8042 20.0208 21.4125 20.4125C21.0208 20.8042 20.55 21 20 21H4C3.45 21 2.97917 20.8042 2.5875 20.4125C2.19583 20.0208 2 19.55 2 19V8.15C2 7.8 2.08333 7.46667 2.25 7.15C2.41667 6.83333 2.65 6.58333 2.95 6.4L12 1ZM12 12.65L19.8 8L12 3.35L4.2 8L12 12.65Z" fill="black"/>
</svg>

<svg xmlns="http://www.w3.org/2000/svg" width="24" height="24" fill="none" viewBox="0 0 24 24">
  <path fill="#000" d="m12 1 9.05 5.4c.3.183.533.433.7.75.167.317.25.65.25 1V19c0 .55-.196 1.02-.587 1.413A1.926 1.926 0 0 1 20 21H4c-.55 0-1.02-.196-1.413-.587A1.926 1.926 0 0 1 2 19V8.15c0-.35.083-.683.25-1 .167-.317.4-.567.7-.75L12 1Zm0 11.65L19.8 8 12 3.35 4.2 8l7.8 4.65Z"/>
</svg>
